!!!!SEGMENT: pl-wnifc--13846--066_anonim--piesni-polskie-i-ruskie-ludu-galicyjskiego-66-juz-miesiac-zeszedl.krn
!!!kernsource:
!!!cenid: 18xx:3288
!!!COM: Anonim
!!!COM-rismID:
!!!CDT:
!!!CNT:
!!!GTL: Pieśni polskie i ruskie ludu galicyjskiego
!!!OTL: 66. Już miesiąc zeszedł
!!!PDT: 1833
!!!AGN:
!!!SMS-siglum: PL-Wnifc
!!!SMS-shelfmark: 13846
!!!SMS-shelfwork: 066 G
!!!SMS-variant:
!!!SMS-altvar:
!!!NIFC-rismSourceID: 1001037178
!!!NIFC-islandoraID:
!!!URL-pdf-islandora:
!!!URL-scan:
!!!ONB-nifc:
!!!OMD: Andante.
!!!AIN: 1 piano 1 vox
!!!key: F
**kern	**kern	**kern	**text
*part2	*part2	*part1	*part1
*staff3	*staff2	*staff1	*staff1
*I"Fortepian	*I"Fortepian	*I"Głos	*
*Ipiano	*Ipiano	*Ivox	*
*ICklav	*ICklav	*ICvox	*
*IGacmp	*IGacmp	*IGsolo	*
*clefF4	*clefG2	*clefG2	*
*k[b-]	*k[b-]	*k[b-]	*
*F:	*F:	*F:	*
*M2/4	*M2/4	*M2/4	*
=1	=1	=1	=1
!	!	!LO:TX:a:t=E.1.	!
*^	*	*	*
!LO:N:vis=2	!	!	!	!
8FF/L	2FF\	4f/ 4a/	4a/	Już
8F/	.	.	.	.
8F/	.	(16a/LL 16cc/	(16cc/LL	mie-
.	.	16g/ 16b-/	16b-/	.
8F/J	.	16f/ 16a/	16a/JJ)	.
.	.	16g/JJ) 16b-/	16b-/	-siąc
=2	=2	=2	=2	=2
!LO:N:vis=2	!	!	!	!
8FF/L	2FF\	8.a\L 8.cc\	(8.cc\L	ze-
8F/	.	.	.	.
.	.	16a\Jk 16ff\	16ff\Jk)	.
8F/	.	4a\ 4ff\	4ff\	-szedł,
8F/J	.	.	.	.
*v	*v	*	*	*
=3	=3	=3	=3
4FF/ 4F/	8a\L 8cc\	8cc\	gwia-
.	8a\ 8cc\	8cc\	-zda
*^	*	*	*
(<8E/L	4C\	8.g\ 8.b-\	8.b-\	się
8c/J)	.	.	.	.
.	.	16e\Jk 16g\	16g/	za-
!!LO:LB:g=original
=4	=4	=4	=4	=4
[<4c/	4F\	8.g/L 8.b-/	(8.b-\L	-ćmi-
.	.	16f/Jk 16a/	16a\Jk)	.
16c/]	16F\LL	4f/ 4a/	4a\	-ła;
16ryy	16F\	.	.	.
16ryy	16C\	.	.	.
16ryy	16AA\JJ	.	.	.
=5	=5	=5	=5	=5
!LO:N:vis=2	!	!	!	!
8FF/L	2FF\	4f/ 4a/	4a\	już
8F/	.	.	.	.
8F/	.	(16a\LL 16cc\	(16cc\LL	żem
.	.	16g\JJ) 16b-\	16b-\JJ)	.
8F/J	.	(16f\LL 16a\	(16a\LL	swe
.	.	16g\JJ) 16b-\	16b-\JJ)	.
*v	*v	*	*	*
=6	=6	=6	=6
*	*^	*	*
4FF/ 4F/	4cc/	4a\^	(8.cc\L	o-
.	.	.	16dd\Jk)	.
4BBB-/ 4BB-/	4d/^ 4f/ 4b-/ 4dd/	4ryy	4dd\	-czy
*	*v	*v	*	*
!!LO:LB:g=original
=7	=7	=7	=7
.	(16qc/LL	.	.
.	16qf/JJ)	.	.
4CC/ 4C/	(>8a\L 8cc\	8cc\	za
.	8a\J) 8cc\	8cc\	nim
4CC/ 4C/	8.G/^>L 8.B-/ 8.e/	8.e/	wy-
.	16B-/Jk 16g/	16g/	-pa-
=8	=8	=8	=8
[<4FF/ [<4C/	[<4B-/ [>4g/	(8.g/L	-trzy-
.	.	16f/Jk)	.
8FF/] 8C/]	8B-/] 8g/]	4f/	-ła.
8r	8r	.	.
==	==	==	==
*-	*-	*-	*-
!!!system-decoration: s1,{(s2,s3)}
!!!RDF**kern: < = below
!!!RDF**kern: > = above
!!!ENC: Marta Chmielewska
!!!END: 2021-11-10
